images/icons/success_icon.svg

<svg width="126" height="126" viewBox="0 0 126 126" fill="none" xmlns="http://www.w3.org/2000/svg">
<g clip-path="url(#clip0_320_845)">
<path d="M63 0.5C28.625 0.5 0.5 28.625 0.5 63C0.5 97.375 28.625 125.5 63 125.5C97.375 125.5 125.5 97.375 125.5 63C125.5 28.625 97.375 0.5 63 0.5ZM63 113C35.4375 113 13 90.5625 13 63C13 35.4375 35.4375 13 63 13C90.5625 13 113 35.4375 113 63C113 90.5625 90.5625 113 63 113ZM91.6875 35.375L50.5 76.5625L34.3125 60.4375L25.5 69.25L50.5 94.25L100.5 44.25L91.6875 35.375Z" fill="#155821"/>
</g>
<defs>
<clipPath id="clip0_320_845">
<rect width="126" height="126" fill="white"/>
</clipPath>
</defs>
</svg>

<svg xmlns="http://www.w3.org/2000/svg" width="126" height="126" fill="none"><g clip-path="url(#a)"><path fill="#155821" d="M63 .5C28.625.5.5 28.625.5 63s28.125 62.5 62.5 62.5 62.5-28.125 62.5-62.5S97.375.5 63 .5zM63 113c-27.562 0-50-22.437-50-50s22.438-50 50-50 50 22.438 50 50-22.437 50-50 50zm28.688-77.625L50.5 76.563 34.313 60.438 25.5 69.25l25 25 50-50-8.812-8.875z"/></g><defs><clipPath id="a"><path fill="#fff" d="M0 0h126v126H0z"/></clipPath></defs></svg>
